assets/stickers/emoticons/stickers/imgly_sticker_emoticons_loving.svg

<svg height="58" viewBox="0 0 62 58" width="62" xmlns="http://www.w3.org/2000/svg"><g fill="none"><path d="m61.3 34.5c0 13-11.9 23.5-30.3 23.5s-30.3-10.5-30.3-23.5 11.9-32.5 30.3-32.5 30.3 19.5 30.3 32.5z" fill="#f7910b"/><path d="m61.3 34.5c0 13-11.9 19.5-30.3 19.5s-30.3-6.5-30.3-19.5 11.9-34.5 30.3-34.5 30.3 21.5 30.3 34.5z" fill="#f7910b"/><path d="m31 0c18.4 0 30.3 21.5 30.3 34.5s-11.9 19.5-30.3 19.5" fill="#f9a908"/><path d="m61.3 34.5c0 13-11.9 19.5-30.3 19.5s-30.3-6.5-30.3-19.5 11.9-32.5 30.3-32.5 30.3 19.5 30.3 32.5z" fill="#f9a908"/><path d="m.7 34.5c0-13 11.9-32.5 30.3-32.5" fill="#f9c55d"/><path d="m31 2c18.4 0 30.3 19.5 30.3 32.5s-11.9 23.5-30.3 23.5" fill="#f7910b"/><path d="m31 2c18.4 0 30.3 19.5 30.3 32.5" fill="#ea7103"/><g transform="translate(18 11)"><path d="m6.9.9c.3.8-1.2.9-2.9 1.6-1.7.6-2.9 1.6-3.2.8s.8-2 2.5-2.6c1.6-.7 3.2-.6 3.6.2z" fill="#19bca4"/><path d="m6.9.9c.3.8-1.2.9-2.9 1.6-1.7.6-2.9 1.6-3.2.8" fill="#109da0"/></g><g transform="translate(37 11)"><path d="m.1.9c-.3.8 1.2.9 2.9 1.6 1.7.6 2.9 1.6 3.2.8s-.8-2-2.5-2.6c-1.6-.7-3.2-.6-3.6.2z" fill="#19bca4"/><path d="m.1.9c-.3.8 1.2.9 2.9 1.6 1.7.6 2.9 1.6 3.2.8" fill="#109da0"/></g><g transform="translate(11 25)"><path d="m15.8 2.8c0 1.2-3.5.7-7.8.7s-7.8.6-7.8-.7c0-1.2 3.5-2.2 7.8-2.2s7.8 1 7.8 2.2z" fill="#f9c55d"/><path d="m39.8 2.8c0 1.2-3.5.7-7.8.7s-7.8.6-7.8-.7c0-1.2 3.5-2.2 7.8-2.2s7.8 1 7.8 2.2z" fill="#f9a908"/></g><circle cx="9.3" cy="31.5" fill="#f7910b" r="1"/><circle cx="4.8" cy="33.5" fill="#f7910b" r="1.1"/><circle cx="7.8" cy="29.5" fill="#f7910b" r="1"/><circle cx="12.4" cy="31.3" fill="#f7910b" r="1"/><circle cx="51.6" cy="31.8" fill="#f9a908" r="1"/><circle cx="54.1" cy="33.2" fill="#f9a908" r="1"/><circle cx="48.8" cy="24.4" fill="#f9a908" r="1"/><circle cx="48.3" cy="36" fill="#f9a908" r="1.3"/><circle cx="55.5" cy="36.1" fill="#f9a908" r="1"/><circle cx="8.3" cy="35.5" fill="#f7910b" r="1"/><circle cx="9.1" cy="27.1" fill="#f7910b" r="1"/><g fill="#f9a908"><circle cx="3.8" cy="13.3" r="1.1"/><circle cx="7" cy="9.8" r="1"/><circle cx="58.2" cy="15.7" r="1"/><circle cx="57.4" cy="12.8" r="1"/><circle cx="60" cy="13.3" r="1"/><circle cx="5" cy="16.3" r="1"/></g><path d="m38.2 42.1c0 2.6-3.3 9.9-7.4 9.9s-7.4-7.3-7.4-9.9" fill="#f7910b"/><g transform="translate(16 27)"><path d="m29.8.3c0 9.1-6.6 16.5-14.8 16.5s-14.8-7.4-14.8-16.5" fill="#c42260"/><path d="m29.8.3c0 3.1-6.6 5.6-14.8 5.6s-14.8-2.5-14.8-5.6" fill="#99144a"/><path d="m15 16.9c4.6 0 8.6-2.3 11.3-5.9-1.7-2.1-4.1-3.4-6.8-3.4-1.6 0-3.2.5-4.5 1.3-1.3-.9-2.9-1.3-4.5-1.3-2.7 0-5.1 1.3-6.8 3.4 2.7 3.5 6.7 5.9 11.3 5.9z" fill="#e2446e"/></g><g transform="translate(33 10)"><path d="m5.4.7c1.8.5 3 1.9 3.2 3.5 0 .2.2.3.3.3.2.1.4.1.4-.1 1-1.3 2.8-1.9 4.5-1.4 2.2.6 3.6 2.7 3.1 4.7-.2.7-.6 1.3-1.2 1.8l-10 6.8-5.1-11c-.3-.7-.3-1.5-.1-2.2.4-2 2.6-3 4.9-2.4z" fill="#d81665"/><path d="m8.9 4.5c.2.1.4.1.4-.1 1-1.3 2.8-1.9 4.5-1.4 2.2.6 3.6 2.7 3.1 4.7-.2.7-.6 1.3-1.2 1.8l-10 6.8" fill="#b20b5f"/></g><g transform="translate(12 10)"><path d="m16.6 3.1c.2.7.2 1.5-.1 2.2l-5.1 11-10-6.8c-.6-.5-1-1.1-1.2-1.8-.5-2 .8-4.1 3.1-4.7 1.8-.5 3.6.1 4.5 1.4.1.1.3.2.4.1.2 0 .3-.1.3-.3.1-1.6 1.4-3 3.2-3.5 2.2-.6 4.4.4 4.9 2.4z" fill="#d81665"/><path d="m11.4 16.4-10-6.8c-.6-.5-1-1.1-1.2-1.8-.5-2 .8-4.1 3.1-4.7 1.8-.5 3.6.1 4.5 1.4.1.1.3.2.4.1" fill="#b20b5f"/></g></g></svg>

<?xml version="1.0" encoding="UTF-8"?>
<svg width="62px" height="58px" viewBox="0 0 62 58" version="1.1" xmlns="http://www.w3.org/2000/svg" xmlns:xlink="http://www.w3.org/1999/xlink">
    <!-- Generator: Sketch 43.1 (39012) - http://www.bohemiancoding.com/sketch -->
    <title>imgly_sticker_emoticons_loving</title>
    <desc>Created with Sketch.</desc>
    <defs></defs>
    <g id="Page-1" stroke="none" stroke-width="1" fill="none" fill-rule="evenodd">
        <g id="loving" fill-rule="nonzero">
            <path d="M61.3,34.5 C61.3,47.5 49.4,58 31,58 C12.6,58 0.7,47.5 0.7,34.5 C0.7,21.5 12.6,2 31,2 C49.4,2 61.3,21.5 61.3,34.5 Z" id="Shape" fill="#F7910B"></path>
            <path d="M61.3,34.5 C61.3,47.5 49.4,54 31,54 C12.6,54 0.7,47.5 0.7,34.5 C0.7,21.5 12.6,0 31,0 C49.4,0 61.3,21.5 61.3,34.5 Z" id="Shape" fill="#F7910B"></path>
            <path d="M31,0 C49.4,0 61.3,21.5 61.3,34.5 C61.3,47.5 49.4,54 31,54" id="Shape" fill="#F9A908"></path>
            <path d="M61.3,34.5 C61.3,47.5 49.4,54 31,54 C12.6,54 0.7,47.5 0.7,34.5 C0.7,21.5 12.6,2 31,2 C49.4,2 61.3,21.5 61.3,34.5 Z" id="Shape" fill="#F9A908"></path>
            <path d="M0.7,34.5 C0.7,21.5 12.6,2 31,2" id="Shape" fill="#F9C55D"></path>
            <path d="M31,2 C49.4,2 61.3,21.5 61.3,34.5 C61.3,47.5 49.4,58 31,58" id="Shape" fill="#F7910B"></path>
            <path d="M31,2 C49.4,2 61.3,21.5 61.3,34.5" id="Shape" fill="#EA7103"></path>
            <g id="Group" transform="translate(18.000000, 11.000000)">
                <g id="Shape">
                    <path d="M6.9,0.9 C7.2,1.7 5.7,1.8 4,2.5 C2.3,3.1 1.1,4.1 0.8,3.3 C0.5,2.5 1.6,1.3 3.3,0.7 C4.9,-1.11022302e-16 6.5,0.1 6.9,0.9 Z" fill="#19BCA4"></path>
                    <path d="M6.9,0.9 C7.2,1.7 5.7,1.8 4,2.5 C2.3,3.1 1.1,4.1 0.8,3.3" fill="#109DA0"></path>
                </g>
                <g transform="translate(19.000000, 0.000000)" id="Shape">
                    <path d="M0.1,0.9 C-0.2,1.7 1.3,1.8 3,2.5 C4.7,3.1 5.9,4.1 6.2,3.3 C6.5,2.5 5.4,1.3 3.7,0.7 C2.1,-1.11022302e-16 0.5,0.1 0.1,0.9 Z" fill="#19BCA4"></path>
                    <path d="M0.1,0.9 C-0.2,1.7 1.3,1.8 3,2.5 C4.7,3.1 5.9,4.1 6.2,3.3" fill="#109DA0"></path>
                </g>
            </g>
            <g id="Group" transform="translate(11.000000, 25.000000)">
                <path d="M15.8,2.8 C15.8,4 12.3,3.5 8,3.5 C3.7,3.5 0.2,4.1 0.2,2.8 C0.2,1.6 3.7,0.6 8,0.6 C12.3,0.6 15.8,1.6 15.8,2.8 Z" id="Shape" fill="#F9C55D"></path>
                <path d="M39.8,2.8 C39.8,4 36.3,3.5 32,3.5 C27.7,3.5 24.2,4.1 24.2,2.8 C24.2,1.6 27.7,0.6 32,0.6 C36.3,0.6 39.8,1.6 39.8,2.8 Z" id="Shape" fill="#F9A908"></path>
            </g>
            <circle id="Oval" fill="#F7910B" cx="9.3" cy="31.5" r="1"></circle>
            <circle id="Oval" fill="#F7910B" cx="4.8" cy="33.5" r="1.1"></circle>
            <circle id="Oval" fill="#F7910B" cx="7.8" cy="29.5" r="1"></circle>
            <circle id="Oval" fill="#F7910B" cx="12.4" cy="31.3" r="1"></circle>
            <circle id="Oval" fill="#F9A908" cx="51.6" cy="31.8" r="1"></circle>
            <circle id="Oval" fill="#F9A908" cx="54.1" cy="33.2" r="1"></circle>
            <circle id="Oval" fill="#F9A908" cx="48.8" cy="24.4" r="1"></circle>
            <circle id="Oval" fill="#F9A908" cx="48.3" cy="36" r="1.3"></circle>
            <circle id="Oval" fill="#F9A908" cx="55.5" cy="36.1" r="1"></circle>
            <circle id="Oval" fill="#F7910B" cx="8.3" cy="35.5" r="1"></circle>
            <circle id="Oval" fill="#F7910B" cx="9.1" cy="27.1" r="1"></circle>
            <circle id="Oval" fill="#F9A908" cx="3.8" cy="13.3" r="1.1"></circle>
            <circle id="Oval" fill="#F9A908" cx="7" cy="9.8" r="1"></circle>
            <circle id="Oval" fill="#F9A908" cx="58.2" cy="15.7" r="1"></circle>
            <circle id="Oval" fill="#F9A908" cx="57.4" cy="12.8" r="1"></circle>
            <circle id="Oval" fill="#F9A908" cx="60" cy="13.3" r="1"></circle>
            <circle id="Oval" fill="#F9A908" cx="5" cy="16.3" r="1"></circle>
            <path d="M38.2,42.1 C38.2,44.7 34.9,52 30.8,52 C26.7,52 23.4,44.7 23.4,42.1" id="Shape" fill="#F7910B"></path>
            <g id="Group" transform="translate(16.000000, 27.000000)">
                <path d="M29.8,0.3 C29.8,9.4 23.2,16.8 15,16.8 C6.8,16.8 0.2,9.4 0.2,0.3" id="Shape" fill="#C42260"></path>
                <path d="M29.8,0.3 C29.8,3.4 23.2,5.9 15,5.9 C6.8,5.9 0.2,3.4 0.2,0.3" id="Shape" fill="#99144A"></path>
                <path d="M15,16.9 C19.6,16.9 23.6,14.6 26.3,11 C24.6,8.9 22.2,7.6 19.5,7.6 C17.9,7.6 16.3,8.1 15,8.9 C13.7,8 12.1,7.6 10.5,7.6 C7.8,7.6 5.4,8.9 3.7,11 C6.4,14.5 10.4,16.9 15,16.9 Z" id="Shape" fill="#E2446E"></path>
            </g>
            <g id="Group" transform="translate(12.000000, 10.000000)">
                <g transform="translate(21.000000, 0.000000)" id="Shape">
                    <path d="M5.4,0.7 C7.2,1.2 8.4,2.6 8.6,4.2 C8.6,4.4 8.8,4.5 8.9,4.5 C9.1,4.6 9.3,4.6 9.3,4.4 C10.3,3.1 12.1,2.5 13.8,3 C16,3.6 17.4,5.7 16.9,7.7 C16.7,8.4 16.3,9 15.7,9.5 L15.7,9.5 L15.7,9.5 L5.7,16.3 L0.6,5.3 L0.6,5.3 L0.6,5.3 C0.3,4.6 0.3,3.8 0.5,3.1 C0.9,1.1 3.1,0.1 5.4,0.7 Z" fill="#D81665"></path>
                    <path d="M8.9,4.5 C9.1,4.6 9.3,4.6 9.3,4.4 C10.3,3.1 12.1,2.5 13.8,3 C16,3.6 17.4,5.7 16.9,7.7 C16.7,8.4 16.3,9 15.7,9.5 L15.7,9.5 L15.7,9.5 L5.7,16.3" fill="#B20B5F"></path>
                </g>
                <g id="Shape">
                    <path d="M16.6,3.1 C16.8,3.8 16.8,4.6 16.5,5.3 L16.5,5.3 L16.5,5.3 L11.4,16.3 L1.4,9.5 L1.4,9.5 L1.4,9.5 C0.8,9 0.4,8.4 0.2,7.7 C-0.3,5.7 1,3.6 3.3,3 C5.1,2.5 6.9,3.1 7.8,4.4 C7.9,4.5 8.1,4.6 8.2,4.5 C8.4,4.5 8.5,4.4 8.5,4.2 C8.6,2.6 9.9,1.2 11.7,0.7 C13.9,0.1 16.1,1.1 16.6,3.1 Z" fill="#D81665"></path>
                    <path d="M11.4,16.4 L1.4,9.6 L1.4,9.6 L1.4,9.6 C0.8,9.1 0.4,8.5 0.2,7.8 C-0.3,5.8 1,3.7 3.3,3.1 C5.1,2.6 6.9,3.2 7.8,4.5 C7.9,4.6 8.1,4.7 8.2,4.6" fill="#B20B5F"></path>
                </g>
            </g>
        </g>
    </g>
</svg>
